X:0231
T:Over the Water to Charlie.
M:6/8
L:1/8
Q:3/8=120
I: :: :: :: ::
Z:Jack Campin * www.campin.me.uk * 2009
K:D
A2A A>BG| FGE     D>FG| A>BA    AFA|B3 d3 |\
D2D DEF | GAF     E2D | dcB     AFA|B3 d3:|
d2e fgf | efd     ecA | d2e     fgf|e3 A3 |\
d2e fgf | efd     ecA | B/c/dB  AFA|B3 d3:|
AFD AFD | BGE     BGE | AFD     EFA|B3 d3 |\
AFD dAF | GAF     E2D | fed     AFA|B3 d3:|
dfd dfd | ecA     acA | dfd     dfd|e3 A3 |\
dfd afd |(c/d/e)c ecA |(B/c/d)B AFA|B3 d3:|

